dist/img/svg/air-purification/steps/bulb.svg

<svg width="49" height="60" viewBox="0 0 49 60" fill="none" xmlns="http://www.w3.org/2000/svg">
<path d="M34.6131 39.9377C37.792 37.0396 39.6015 32.9627 39.6015 28.6892C39.6015 20.3389 32.8035 13.5112 24.4895 13.5112C16.1754 13.5112 9.37744 20.3389 9.37744 28.6892C9.37744 33.0609 11.2848 37.2361 14.5126 40.085C16.909 42.4919 16.6645 47.6003 16.6645 47.6495C16.6645 47.8951 16.7623 48.1406 16.909 48.3371C17.1046 48.5336 17.3492 48.6318 17.5937 48.6318H31.4342C31.6787 48.6318 31.9232 48.5336 32.1189 48.3371C32.3145 48.1406 32.3634 47.8951 32.3634 47.6495C32.3634 47.6003 32.1189 42.4919 34.5153 40.085C34.5642 40.0359 34.6131 39.9868 34.6131 39.9377ZM33.2437 38.7097C33.1459 38.7588 33.097 38.857 33.0481 38.9553C30.8962 41.2639 30.5539 45.0461 30.5049 46.8144H18.5229C18.474 44.997 18.0828 41.0674 15.7842 38.7588C12.8987 36.2046 11.2359 32.5697 11.2359 28.7384C11.2359 21.3704 17.2024 15.4269 24.4895 15.4269C31.8254 15.4269 37.7431 21.4195 37.7431 28.7384C37.7431 32.5206 36.1292 36.2046 33.2437 38.7097Z" fill="#5CCD6A"/>
<path d="M24.4893 17.4409C24.0002 17.4409 23.5601 17.8338 23.5601 18.3741C23.5601 18.8653 23.9513 19.3074 24.4893 19.3074C29.9668 19.3074 34.4172 23.7773 34.4172 29.2787C34.4172 29.7699 34.8085 30.212 35.3465 30.212C35.8355 30.212 36.2757 29.819 36.2757 29.2787C36.2757 22.7458 30.9938 17.4409 24.4893 17.4409Z" fill="#5CCD6A"/>
<path d="M32.8031 52.1194C32.8031 50.8423 31.7761 49.8599 30.5534 49.8599H18.4736C17.202 49.8599 16.2239 50.8914 16.2239 52.1194C16.2239 53.3965 17.2509 54.3789 18.4736 54.3789H30.5045C31.7761 54.3789 32.8031 53.3965 32.8031 52.1194ZM30.5045 52.5123H18.4736C18.229 52.5123 18.0823 52.3158 18.0823 52.1194C18.0823 51.8738 18.2779 51.7264 18.4736 51.7264H30.5045C30.749 51.7264 30.8958 51.9229 30.8958 52.1194C30.9447 52.365 30.749 52.5123 30.5045 52.5123Z" fill="#5CCD6A"/>
<path d="M28.744 55.3613H20.2833C19.0117 55.3613 18.0336 56.3928 18.0336 57.6208C18.0336 58.8979 19.0606 59.8803 20.2833 59.8803H28.744C30.0156 59.8803 30.9937 58.8488 30.9937 57.6208C30.9937 56.3928 29.9667 55.3613 28.744 55.3613ZM28.744 58.0137H20.2833C20.0387 58.0137 19.892 57.8173 19.892 57.6208C19.892 57.3752 20.0876 57.2278 20.2833 57.2278H28.744C28.9886 57.2278 29.1353 57.4243 29.1353 57.6208C29.1353 57.8664 28.9886 58.0137 28.744 58.0137Z" fill="#5CCD6A"/>
<path d="M25.4185 8.05898V1.77165C25.4185 1.28046 25.0272 0.838379 24.4893 0.838379C24.0002 0.838379 23.5601 1.23134 23.5601 1.77165V8.1081C23.5601 8.5993 23.9513 9.04138 24.4893 9.04138C25.0272 8.99226 25.4185 8.5993 25.4185 8.05898Z" fill="#5CCD6A"/>
<path d="M39.8946 5.50471C39.4544 5.20999 38.9164 5.35735 38.623 5.75031L35.1506 11.0061C34.8572 11.4482 35.0039 11.9885 35.3952 12.2832C35.5419 12.3815 35.7375 12.4306 35.8842 12.4306C36.1777 12.4306 36.4711 12.2832 36.6667 12.0376L40.1391 6.78182C40.4325 6.38887 40.2858 5.79943 39.8946 5.50471Z" fill="#5CCD6A"/>
<path d="M13.4363 12.2341C13.5831 12.2341 13.7787 12.185 13.9254 12.0868C14.3656 11.792 14.4634 11.2517 14.2188 10.8097L10.8443 5.50472C10.5509 5.06264 10.0129 4.9644 9.57275 5.21C9.1326 5.50472 9.03478 6.04504 9.27931 6.48711L12.6538 11.792C12.8495 12.0868 13.1429 12.2341 13.4363 12.2341Z" fill="#5CCD6A"/>
<path d="M0.476266 16.6549L6.00268 19.6512C6.14939 19.7494 6.29611 19.7494 6.44283 19.7494C6.78517 19.7494 7.07861 19.553 7.27424 19.2583C7.51877 18.8162 7.37205 18.2267 6.88299 17.9811L1.35658 14.9848C0.916423 14.7392 0.329548 14.8866 0.0850165 15.3778C-0.110609 15.869 0.0361099 16.4093 0.476266 16.6549Z" fill="#5CCD6A"/>
<path d="M42.5355 19.7986C42.6822 19.7986 42.8289 19.7495 42.9756 19.7004L48.502 16.7041C48.9422 16.4585 49.1378 15.9181 48.8933 15.427C48.6487 14.9849 48.1108 14.7884 47.6217 15.034L42.0953 18.0303C41.6552 18.2759 41.4595 18.8162 41.7041 19.3074C41.8508 19.6021 42.1931 19.7986 42.5355 19.7986Z" fill="#5CCD6A"/>
</svg>

<svg width="49" height="60" fill="none" xmlns="http://www.w3.org/2000/svg"><path d="M34.613 39.938a15.221 15.221 0 004.989-11.249c0-8.35-6.798-15.178-15.112-15.178-8.315 0-15.113 6.828-15.113 15.178 0 4.372 1.908 8.547 5.136 11.396 2.396 2.407 2.152 7.515 2.152 7.565 0 .245.097.49.244.687.196.197.44.295.685.295h13.84a.964.964 0 00.685-.295c.196-.196.244-.442.244-.688 0-.049-.244-5.157 2.152-7.564.05-.05.098-.098.098-.147zm-1.37-1.228c-.097.049-.146.147-.195.245-2.152 2.309-2.494 6.091-2.543 7.86H18.523c-.049-1.818-.44-5.748-2.739-8.056-2.885-2.554-4.548-6.19-4.548-10.02 0-7.369 5.966-13.312 13.253-13.312 7.336 0 13.254 5.992 13.254 13.311 0 3.783-1.614 7.467-4.5 9.972z" fill="#5CCD6A"/><path d="M24.49 17.44a.93.93 0 00-.93.934.93.93 0 00.93.933c5.477 0 9.927 4.47 9.927 9.972a.93.93 0 00.93.933.93.93 0 00.929-.933c0-6.533-5.282-11.838-11.787-11.838zm8.313 34.68a2.249 2.249 0 00-2.25-2.26h-12.08a2.249 2.249 0 00-2.25 2.26 2.249 2.249 0 002.25 2.259h12.032c1.271 0 2.298-.982 2.298-2.26zm-2.298.392H18.474a.387.387 0 01-.392-.393c0-.245.196-.393.392-.393h12.03c.245 0 .392.197.392.393.049.246-.147.393-.392.393zm-1.761 2.849h-8.46a2.249 2.249 0 00-2.25 2.26 2.249 2.249 0 002.25 2.26h8.46a2.249 2.249 0 002.25-2.26c0-1.228-1.027-2.26-2.25-2.26zm0 2.653h-8.46a.387.387 0 01-.392-.393c0-.246.196-.393.391-.393h8.461c.245 0 .391.196.391.393 0 .245-.146.393-.391.393zM25.419 8.059V1.772a.93.93 0 00-.93-.934.93.93 0 00-.929.934v6.336a.93.93 0 00.93.933c.537-.049.929-.442.929-.982zm14.476-2.554c-.44-.295-.979-.148-1.272.245l-3.472 5.256c-.294.442-.147.982.244 1.277a.94.94 0 00.49.148c.293 0 .586-.148.782-.393l3.472-5.256c.293-.393.147-.983-.244-1.277zm-26.459 6.729a.94.94 0 00.49-.147c.44-.295.537-.835.293-1.277l-3.375-5.305c-.293-.442-.831-.54-1.271-.295-.44.295-.538.835-.294 1.277l3.375 5.305a.938.938 0 00.782.442zM.476 16.655l5.527 2.996c.146.098.293.098.44.098.342 0 .636-.196.831-.49a.926.926 0 00-.391-1.278l-5.526-2.996a.918.918 0 00-1.272.393c-.196.491-.049 1.031.391 1.277zm42.059 3.144c.147 0 .294-.05.44-.099l5.527-2.996a.955.955 0 00.391-1.277.946.946 0 00-1.271-.393l-5.527 2.996a.954.954 0 00-.39 1.277c.146.295.488.492.83.492z" fill="#5CCD6A"/></svg>
